X:1
T:Baddeck Gathering
M:6/8
L:1/8
K:D
C:"Piper Alex" MacDonald
A,|"D"DED FEF|D3 D2A,|"Bm"DED FDF|"A"A3 ABc|!
"Bm"dBd "A"cAc|"G"BGB "D"A2B|AFA {ABc}d2F|"Em"EFE EDB,|!
"D"DED FEF|D3 D2A,|"Bm"DED FDF|"A"A3 ABc|!
"Bm"dBd "A"cAc|"G"BGB "D/F#"A2G|FED "A"A,FE|"D"D3D2|]!
g|"D"fga d2g|"F#m/C#"faa {b}agf|"C"efg =c2g|"Am"egg {a}gfe|!
[1"D"fga d2g|faa {b}agf|"Em"efg "A"ABc|"D"{Bc}d3d2:|!
[2"D"fga "A"ABc|"D"{e}dcd A2G|FED "A"A,B,C|"D"D3D2|]!
